images/flags/im.svg

<svg xmlns="http://www.w3.org/2000/svg" viewBox="0 0 512 512"><path fill="#d00c27" d="M0 88h512v336H0z"/><path d="M391 139.1h-45.8l-33.8 80.2-34.4-22.9s-24.7-59.1-34.4-68.2c-9.7-9.7-18.7-.6-48.9 7.8-29.6 8.4-30.8 18.7-42.2 18.7-4.8 0-19.9-17.5-27.7-22.3-12.1-7.8-16.9-4.2-13.9 7.2 1.2 4.8 10.9 10.9 16.9 19.9 7.8 11.5 12.7 25.9 12.7 25.9s10.9-10.3 16.9-12.1c9-2.4 19.3 1.8 31.4 0 15.1-2.4 31.4-10.9 31.4-10.9l4.2 43.4s-54.3 50.7-49.5 70.6 56.1 44.6 68.2 62.7c12.1 17.5-7.2 24.1-7.2 32.6s-1.8 19.9 7.2 16.3 10.3-18.1 18.7-31.4c6-9 10.3-13.9 11.5-17.5 1.8-9-23.5-32-37.4-48.9-6.6-7.8-19.9-18.7-19.9-18.7l39.2-29.6s67.6 27.7 82.6 18.7c15.1-9 19.3-98.3 19.3-98.3l47-11.5-12.1-11.7z" fill="#fff"/><path d="M280 340.3c-6 0-11.5-4.8-11.5-11.5s4.8-11.5 11.5-11.5c6 0 11.5 4.8 11.5 11.5s-5.5 11.5-11.5 11.5zm52.8-190.8c-6 0-11.5-4.8-11.5-11.5s4.8-11.5 11.5-11.5c6 0 11.5 4.8 11.5 11.5s-5.5 11.5-11.5 11.5zm-3 112.1c-6 0-11.5-4.8-11.5-11.5 0-6 4.8-11.5 11.5-11.5 6 0 11.5 4.8 11.5 11.5-.6 6.7-5.5 11.5-11.5 11.5zm-143.9 25.8c-6 0-11.5-4.8-11.5-11.5 0-6 4.8-11.5 11.5-11.5 6.6 0 11.5 4.8 11.5 11.5s-5.5 11.5-11.5 11.5zm48.2-140.9c-6 0-11.5-4.8-11.5-11.5s4.8-11.5 11.5-11.5c6 0 11.5 4.8 11.5 11.5s-4.8 11.5-11.5 11.5zm14.2 59.6c5.8-1.6 13.3 5.1 15.9 14.9 2.6 9.8.2 19.1-6.3 20.8-5.8 1.6-13.3-5.1-15.9-14.9-2.6-9.8-.2-19.1 6.3-20.8zm14.5 19c-3 5.2-14.7 4.8-25.6-1.5-10.9-6.3-17.4-15.6-14.1-21.4 3-5.2 14.7-4.8 25.6 1.5 10.9 6.3 17.5 15.6 14.1 21.4zm13.2-30.7c4 4.5 0 15.4-9.3 23.9S246.4 230 242 225c-4-4.5 0-15.4 9.3-23.9 9.3-8.4 20.2-11.7 24.7-6.7zm-135 12c-6 0-11.5-4.8-11.5-11.5 0-6.6 4.8-11.5 11.5-11.5 6.6 0 11.5 4.8 11.5 11.5 0 6.6-4.8 11.5-11.5 11.5z" fill="#fadf12"/></svg>

<?xml version="1.0" encoding="utf-8"?>
<!-- Generator: Adobe Illustrator 25.0.0, SVG Export Plug-In . SVG Version: 6.00 Build 0)  -->
<svg version="1.1" id="Layer_1" xmlns="http://www.w3.org/2000/svg" xmlns:xlink="http://www.w3.org/1999/xlink" x="0px" y="0px"
	 viewBox="0 0 512 512" style="enable-background:new 0 0 512 512;" xml:space="preserve">
<style type="text/css">
	.st0{fill:#D00C27;}
	.st1{fill:#FFFFFF;}
	.st2{fill:#FADF12;}
</style>
<rect y="88" class="st0" width="512" height="336"/>
<path id="Path" class="st1" d="M391,139.1h-45.8l-33.8,80.2L277,196.4c0,0-24.7-59.1-34.4-68.2c-9.7-9.7-18.7-0.6-48.9,7.8
	c-29.6,8.4-30.8,18.7-42.2,18.7c-4.8,0-19.9-17.5-27.7-22.3c-12.1-7.8-16.9-4.2-13.9,7.2c1.2,4.8,10.9,10.9,16.9,19.9
	c7.8,11.5,12.7,25.9,12.7,25.9s10.9-10.3,16.9-12.1c9-2.4,19.3,1.8,31.4,0c15.1-2.4,31.4-10.9,31.4-10.9l4.2,43.4
	c0,0-54.3,50.7-49.5,70.6s56.1,44.6,68.2,62.7c12.1,17.5-7.2,24.1-7.2,32.6s-1.8,19.9,7.2,16.3s10.3-18.1,18.7-31.4
	c6-9,10.3-13.9,11.5-17.5c1.8-9-23.5-32-37.4-48.9c-6.6-7.8-19.9-18.7-19.9-18.7l39.2-29.6c0,0,67.6,27.7,82.6,18.7
	c15.1-9,19.3-98.3,19.3-98.3l47-11.5L391,139.1z"/>
<path id="Shape" class="st2" d="M280,340.3c-6,0-11.5-4.8-11.5-11.5s4.8-11.5,11.5-11.5c6,0,11.5,4.8,11.5,11.5S286,340.3,280,340.3
	z M332.8,149.5c-6,0-11.5-4.8-11.5-11.5s4.8-11.5,11.5-11.5c6,0,11.5,4.8,11.5,11.5S338.8,149.5,332.8,149.5z M329.8,261.6
	c-6,0-11.5-4.8-11.5-11.5c0-6,4.8-11.5,11.5-11.5c6,0,11.5,4.8,11.5,11.5C340.7,256.8,335.8,261.6,329.8,261.6z M185.9,287.4
	c-6,0-11.5-4.8-11.5-11.5c0-6,4.8-11.5,11.5-11.5c6.6,0,11.5,4.8,11.5,11.5S191.9,287.4,185.9,287.4z M234.1,146.5
	c-6,0-11.5-4.8-11.5-11.5s4.8-11.5,11.5-11.5c6,0,11.5,4.8,11.5,11.5S240.8,146.5,234.1,146.5z M248.3,206.1
	c5.8-1.6,13.3,5.1,15.9,14.9c2.6,9.8,0.2,19.1-6.3,20.8c-5.8,1.6-13.3-5.1-15.9-14.9C239.4,217.1,241.8,207.8,248.3,206.1z
	 M262.8,225.1c-3,5.2-14.7,4.8-25.6-1.5c-10.9-6.3-17.4-15.6-14.1-21.4c3-5.2,14.7-4.8,25.6,1.5C259.6,210,266.2,219.3,262.8,225.1z
	 M276,194.4c4,4.5,0,15.4-9.3,23.9S246.4,230,242,225c-4-4.5,0-15.4,9.3-23.9C260.6,192.7,271.5,189.4,276,194.4z M141,206.4
	c-6,0-11.5-4.8-11.5-11.5c0-6.6,4.8-11.5,11.5-11.5c6.6,0,11.5,4.8,11.5,11.5C152.5,201.5,147.7,206.4,141,206.4z"/>
</svg>
